X:1
T: From Scotia's Shores We're Noo Awa'
C:
R:Strathspey
Q: 128
K:D
M:4/4
L:1/16
|:A2|FA3 f3e d4 B3d|A3F GFED CE3 E3G|F3A f3e d4 B3d|A3d cdec d4 d2A2|
FA3 f3e d4 B3d|A3F GFED CE3 E3G|F3A f3e d4 B3d|A3d cdec d4 d2fg|
a3f d3f e3d Bd3|A3B d3e f4 f3e|d3e f3g a3b a3f|((3g2f2e2) f3d ee3 e3f|
d3e f3g a3b a3f|gfga bagf e4 a3g|fa3 df3 Bd3 G3B|A3d cdec d4 d2:|
